X: 58
T: JIG: Paddy Fahey's (Gmin)
C: C: Paddy Fahey; S: Martin Hayes
C: Set Leaders: Oliushka, Anton
Z: [Unedited]; Jeff Finkelstein at The Session
N: https://thesession.org/members/26966/sets/95962
R: Jig
M: 6/8
L: 1/8
Q: 3/8=116
K: Gdor
F|:DGA B2 c|cBc d2g|gfd Bcd|cAG FDC|
DGA B2 c|cBc d2 g|gfd Bcd|1 cAF G2 D:|2 cAF GBd||
|:g3 fga|gfd Bcd|c2 A f3|agf def|
g2 a bag|fdg fdc|B2G Adc|1 AGF GBd:|2 AGF G2D||

